icons/coffeeIcon.svg

<svg xmlns="http://www.w3.org/2000/svg" width="24" height="24" xmlns:v="https://vecta.io/nano"><path d="M13 20H6c-2.174-3.004-4-6.284-4-12h15c0 5.667-1.88 9.1-4 12zm5.12-10a21.82 21.82 0 0 1-.252 2h1.55c-.45 1.3-1.5 2.478-2.3 2.914a18.786 18.786 0 0 1-1.26 2.852C19.132 16.623 21.704 13.257 22 10h-3.88zm-7.745-3c4.737-4.27-.98-4.044.117-7-3.783 3.817 1.4 3.902-.117 7zm-2.78 0c3.154-2.825-.664-3.102.087-5.1-2.642 2.787.95 2.86-.087 5.1zM17 22H2v2h15v-2z"/></svg>

<?xml version="1.0" encoding="UTF-8" standalone="no"?>
<!DOCTYPE svg PUBLIC "-//W3C//DTD SVG 1.1//EN" "http://www.w3.org/Graphics/SVG/1.1/DTD/svg11.dtd">
<svg width="100%" height="100%" viewBox="0 0 24 24" version="1.1" xmlns="http://www.w3.org/2000/svg" xmlns:xlink="http://www.w3.org/1999/xlink" xml:space="preserve" xmlns:serif="http://www.serif.com/" style="fill-rule:evenodd;clip-rule:evenodd;stroke-linejoin:round;stroke-miterlimit:2;">
    <path d="M13,20L6,20C3.826,16.996 2,13.716 2,8L17,8C17,13.667 15.12,17.1 13,20ZM18.12,10C18.067,10.67 17.983,11.338 17.868,12L19.418,12C18.968,13.3 17.918,14.478 17.118,14.914C16.778,15.898 16.356,16.852 15.858,17.766C19.132,16.623 21.704,13.257 22,10L18.12,10ZM10.375,7C15.112,2.73 9.395,2.956 10.492,0C6.709,3.817 11.892,3.902 10.375,7ZM7.595,7C10.749,4.175 6.931,3.898 7.682,1.9C5.04,4.687 8.632,4.76 7.595,7ZM17,22L2,22L2,24L17,24L17,22Z" style="fill:white;fill-rule:nonzero;"/>
</svg>
